X:1
T:Paddy O'Rafferty's -- Jig
R:jig
B:Ryan's Mammoth Collection
N: 85 435
N:it sounds better with one sharp
Z: Contributed by Ray Davies,  ray:davies99.freeserve.co.uk
M:6/8
L:1/8
K:Glyd
vDBB DAA | DBB AGA | DBB DAA | GAG GED |
DBB DAA | DcB cde | dcB AGA | GAG GED H|]
|:dBd ece | dBg dBG | dBd efg | GAG GED |
dBd ece | fdf gfe | dcB AGA | GAG GED :|
|:BDD ADD | BDD AGA | BDD ADD | GAG GED |
BDD ADD | DcB cde | dcB AGA | GAG GED "_D.C.":|
